!!!COM: Palestrina, Giovanni Perluigi da
!!!OPR: Pater noster
!!!OTL: Benedictus
**kern	**kern	**kern
*Ibass	*Itenor	*Icalto
!Bassus	!Tenor	!Altus
*clefF4	*clefGv2	*clefG2
*k[]	*k[]	*k[]
*D:dor	*D:dor	*D:dor
*M4/2	*M4/2	*M4/2
=1	=1	=1
1r	0c	0r
[1F	.	.
=2	=2	=2
1F]	1d	0r
1G	1e	.
=3	=3	=3
1A	2e	0r
.	2e	.
2A	2f	.
2A	2e	.
=4	=4	=4
1.B-	2.d	0f
.	4c	.
.	4d	.
.	4e	.
2A	[2f	.
=5	=5	=5
1G	2f]	1g
.	2e	.
[1F	2.f	1a
.	4e	.
=6	=6	=6
1F]	2d	2a
.	2c	2a
1r	2d	[1b-
.	[2g	.
=7	=7	=7
0r	2g]	2b-]
.	1f	2a
.	.	1g
.	2e	.
=8	=8	=8
0F	2d	2f
.	4c	2a
.	4B	.
.	2A	2.cc
.	2a	.
.	.	4a
=9	=9	=9
1G	4g	4b-
.	4f	4a
.	4e	4g
.	4d	4f
1A	2c	2e
.	2f	[2d
=10	=10	=10
2A	1e	2d]
2A	.	2c#
[1B-	2.d	2d
.	.	2f
.	4c	.
=11	=11	=11
2B-]	4d	2g
.	4e	.
2A	1f	2a
1G	.	1b-
.	2e	.
=12	=12	=12
0F	1f	2a
.	.	2f
.	2r	2.a
.	2c	.
.	.	4a
=13	=13	=13
2r	2.e	1g
2C	.	.
.	4e	.
2D	2d	4f
.	.	4g
2F	4c	4a
.	4d	4b
=14	=14	=14
2.E	4e	2cc
.	4f	.
.	2.g	4b
4F	.	4a
2G	.	2b
.	4f	.
[2A	4e	[2cc
.	4d	.
=15	=15	=15
2A]	2c	2cc]
4G	2d	4b
4F	.	4a
2E	2e	2g
2D	4A	2f
.	4B	.
=16	=16	=16
2.C	4c	2.e
.	4d	.
.	2.e	.
4D	.	4f
4E	.	1g
4F	4d	.
4G	4B	.
4E	4c	.
=17	=17	=17
4F	2d	0r
4G	.	.
1A	4c	.
.	8B	.
.	8A	.
.	2B	.
2G#	2B	.
=18	=18	=18
1A	2A	2r
.	2c	2a
2r	2d	2.a
2F	2f	.
.	.	4a
=19	=19	=19
2G	2e	2g
2B-	4d	4f
.	4e	4g
2A	4f	4a
.	4g	4b
[2F	[2a	[2cc
=20	=20	=20
4F]	4a]	4cc]
4G	4g	4b
4A	2f	2a
4B	.	.
2c	2e	2g
2d	[2f	2f
=21	=21	=21
1c	2f]	2g
.	2e	2g
1F	2f	[1a
.	2c	.
=22	=22	=22
2r	2d	1a]
2F	2f	.
2.A	2.e	2r
.	.	2c
4A	4f	.
=23	=23	=23
2G	2g	2d
4F	1a	2f
4G	.	.
4A	.	2.e
4B	.	.
[2c	4g	.
.	4f	4f
=24	=24	=24
4c]	2e	2g
4B	.	.
4A	1f	1a
4G	.	.
2F	.	.
2G	4e	4g
.	4d	4f
=25	=25	=25
2A	2c	2e
2B-	1d	2d
2A	.	2e
2A	2c#	2e
=26	=26	=26
0D	0d	0d
==	==	==
*-	*-	*-
!!!CDT: 1525/^1526/-1594/2/2
!!!OCY: Italia
!!!AGN: Mass (Paraphrase)
!!!AST: renaissance, vocal
!!!ASW: Prayer
!!!PWK: Masses, Book 10
!!!RNB: Cadence finals: A
!!!YOR: Le Opere Complete, v. 27, p. 199
!!!YOO: Rome, Italy: Fratelli Scalera
!!!END: 1992//
!!!EED: John Miller
!!!YEC: Copyright 2000, John Miller
!!!YEN: United States of America
!!!YEM: Rights to all derivative electronic formats reserved.
!!!YEM: Refer to licensing agreement for further details.
!!!YEM: This file must be accompanied by the licensing agreement.
!!!YEM: A copy of the licensing agreement may be found at http://www.music-cog.ohio-state.edu/HumdrumDatabases/Palestrina/license.txt
!!!EMD: converted to Humdrum by Bret Aarden
